X:1
T:Title
%%score { 1 | ( 2 3 ) }
L:1/8
M:3/4
K:Ab
V:1 treble nm="Grand Piano"
V:2 bass 
V:3 bass 
V:1
 z2 z2[Q:1/4=94] E2 | [Ec]>[Ec] [Ec]2 [EA]2 | B>B B2 GA | B2 d2 c>B |[M:2/4] [CA]4 |[M:1/4] z2 | %6
[M:3/4] [Ec]>[Ec] [Ec]2 [EA]2 | B>B B2 GA | B2 d2 c>B |[M:2/4] [CA]4 |[M:1/4] [Ec]2 | %11
[M:3/4] B>c d2 B2 | c>d e3 c | B>c d2 d2 |[M:5/8] [Ec]>[EA] B3 |[M:1/4] E2 |[M:3/4] c>c c2 B2 | %17
[M:7/8] [Ec]>[Ed] [Ee]3 [Ec]>[EA] |[M:3/4] [FB]4 [CEA]>[B,EG] |[M:2/4] [CEA]4 |] %20
V:2
 z2 z2 E,2 | [A,,A,]>[A,,A,] [A,,A,]2 [C,A,]2 | [E,G,E]>[E,G,E] [E,G,E]2 [E,B,E][F,B,E] | E4 z2 | %4
[M:2/4] [A,,A,]4 |[M:1/4] [E,E]2 |[M:3/4] [A,,A,]>[A,,A,] [A,,A,]2 [C,A,]2 | %7
 [E,G,E]>[E,G,E] [E,G,E]2 [E,B,E][F,B,E] | E4 z2 |[M:2/4] [A,,A,]4 |[M:1/4] [A,,A,]2 | %11
[M:3/4] [E,G,E]>[E,A,E] [E,B,E]2 [E,G,E]2 | [A,E]>[A,B,E] [A,CE]3 [A,E] | %13
 [E,G,E]>[E,A,E] [E,B,E]2 [E,G,E]2 |[M:5/8] [A,,A,]>[C,A,] [E,G,E]3 |[M:1/4] E,2 | %16
[M:3/4] [A,E]>[A,E] [A,E]2 [E,G,E]2 |[M:7/8] [A,,A,]>[A,,B,] [A,,C]3 [A,,A,]>[C,A,] | %18
[M:3/4] A,2 z2 z2 |[M:2/4] A,,4 |] %20
V:3
 x6 | x6 | x6 | [G,B,]2 [E,G,]2 [E,G,E]>[E,G,D] |[M:2/4] x4 |[M:1/4] x2 |[M:3/4] x6 | x6 | %8
 [G,B,]2 [E,G,]2 [E,G,E]>[E,G,D] |[M:2/4] x4 |[M:1/4] x2 |[M:3/4] x6 | x6 | x6 |[M:5/8] x5 | %15
[M:1/4] x2 |[M:3/4] x6 |[M:7/8] x7 |[M:3/4] D,2- [D,D]2 E,>E, |[M:2/4] x4 |] %20

